data/maname.svg

<svg width="53.382" height="16.8" viewBox="0 0 53.382 16.8" xmlns="http://www.w3.org/2000/svg"><path transform="translate(0 16.8) scale(.014 -.014)" d="m44 1-6 44q42 0 65 14.5t27 57.5q2 15 2.5 49t1.5 75.5 1 80.5 0 64v111q0 31-13.5 46t-35 19.5-44.5 4.5l-6 49q57-3 103-3 24 0 48.5 0.5t50.5 1.5q11-19 31.5-55.5t45.5-82.5 49-95 43-95.5 28-82.5l10-78 201 488q17-1 37-1.5t44-0.5q23 0 54.5 1t63.5 3l7-49q-40 0-62.5-12.5t-25.5-59.5q-1-11-1.5-31.5t-0.5-43.5 0-42 0-27q0-37 0.5-83t2-87 3.5-64q3-33 11-49.5t25-21.5 45-5l7-40h-252l-7 44q19 0 37 3.5t31 16.5 16 42q2 19 3.5 73.5t1.5 127.5q0 69-1.5 132.5t-3.5 111.5l-26-86q-43-94-88.5-201t-91.5-224l-1 1v-1l-53-16q-4 17-18 53t-34 82.5-44 96.5-48.5 97-46.5 84l-27 94q-1-37-2-81t-1-93q0-59 1-112t3-92 4-57q5-32 21-43.5t51-11.5l9-41z"/><path transform="translate(12.432 16.8) scale(.014 -.014)" d="m162-10q-57 0-94 27t-37 83 41.5 94.5 131.5 60.5q33 8 62.5 12t47.5 6q-1 52-7 79-9 43-33 59t-50 16q-24 0-42-9.5t-31-22.5q-7-19-12-39.5t-7-46.5l-68-7q-2 20-3 40t-1 36q0 15 0.5 24t1.5 13q35 19 85.5 37t117.5 18q73 0 103-30.5t30-108.5q0-18-1-35.5t-3-39.5q-2-33-3-54t-1-44q0-29 3.5-56t15.5-43.5 39-16.5h10l9-30q-9-4-30-12t-47-8q-37 0-53 19t-21 52q-11-15-31-32t-50.5-29-72.5-12zm-33 129q0-33 19-51.5t54-18.5q40 0 69 21t38 43q4 45 5 104-11 2-25.5 4.5t-31.5 2.5q-61 0-94.5-30.5t-33.5-74.5z"/><path transform="translate(19.138 16.8) scale(.014 -.014)" d="m55 0-6 48q5-1 10-1t10 0q26 0 45.5 10.5t21.5 36.5q5 51 5.5 105t0.5 92q0 42-4 68t-24.5 38.5-68.5 13.5l-5 46q23 0 51.5 1.5t57 3.5 50 3.5 29.5 2.5q0-5-2.5-23.5t-5.5-38.5-6-30q21 24 52 45.5t67 35 73 13.5q44 0 74-22.5t40-77.5q2-8 3.5-30t0.5-53l-2-80q-1-46-2.5-67t-1.5-32q0-31 11-46t27-19 31-4l7-39h-239l-8 42h20q32 0 48 12.5t21 49.5q2 14 3.5 36.5t2 46.5 0.5 42q0 28-1.5 54t-3.5 40q-6 39-29.5 56.5t-58.5 17.5q-45 0-76-20t-44-35q-2-57-3.5-119.5t-1.5-117.5q0-31 10.5-45.5t25.5-18.5 30-4l7-37z"/><path transform="translate(27.846 16.8) scale(.014 -.014)" d="m162-10q-57 0-94 27t-37 83 41.5 94.5 131.5 60.5q33 8 62.5 12t47.5 6q-1 52-7 79-9 43-33 59t-50 16q-24 0-42-9.5t-31-22.5q-7-19-12-39.5t-7-46.5l-68-7q-2 20-3 40t-1 36q0 15 0.5 24t1.5 13q35 19 85.5 37t117.5 18q73 0 103-30.5t30-108.5q0-18-1-35.5t-3-39.5q-2-33-3-54t-1-44q0-29 3.5-56t15.5-43.5 39-16.5h10l9-30q-9-4-30-12t-47-8q-37 0-53 19t-21 52q-11-15-31-32t-50.5-29-72.5-12zm-33 129q0-33 19-51.5t54-18.5q40 0 69 21t38 43q4 45 5 104-11 2-25.5 4.5t-31.5 2.5q-61 0-94.5-30.5t-33.5-74.5z"/><path transform="translate(34.552 16.8) scale(.014 -.014)" d="m45 0-6 48q5-1 10-1t10 0q26 0 45.5 10.5t21.5 36.5q5 51 5.5 105t0.5 92q0 42-4.5 68t-24.5 38.5-68 13.5l-5 46q23 0 51.5 1.5t57 3.5 50 3.5 29.5 2.5q0-5-2.5-22t-5.5-36-6-29q19 22 48.5 42.5t64.5 34 73 13.5q40 0 69-18t40-58q31 30 76.5 53t96.5 23q45 0 76-23.5t36-77.5q2-19 2.5-41.5t0.5-31.5l-2-110-3-96q-1-30 18-41t45-11l7-39h-223l-8 41h10q26 0 42 12t22 52q3 21 4.5 58.5t1.5 65.5q0 61-5 94-6 40-27 58t-57 18q-41 0-69-16.5t-39-28.5q1-16 1.5-32.5t0.5-24.5l-2-110-3-96q-1-30 18-41t45-11l7-39h-223l-8 45h10q26 0 42.5 10.5t21.5 49.5q3 21 4.5 58.5t1.5 65.5q0 61-5 94-6 40-27 58t-57 18q-30 0-53-9.5t-38-21-21-18.5q-2-59-3.5-123.5t-1.5-121.5q0-31 10.5-45.5t25.5-18.5 30-4l7-37z"/><path transform="translate(46.76 16.8) scale(.014 -.014)" d="m252-15q-58 0-107 24t-78 73-29 125q0 81 32 139.5t83.5 89.5 109.5 31q49 0 88.5-23t63-68 23.5-111q0-10 0-19.5t-2-20.5l-305-2q1-47 14-88.5t45.5-67.5 90.5-26q39 0 65.5 10t41 20.5 16.5 13.5l16-26q-8-10-28-27.5t-54.5-32-85.5-14.5zm-5 437q-45 0-76.5-42.5t-38.5-117.5l160 16h49q0 37-10.5 70t-31 53.5-52.5 20.5z"/></svg>

<?xml version="1.0" encoding="utf-8" ?>
<svg baseProfile="tiny" height="100%" version="1.2" width="100%" xmlns="http://www.w3.org/2000/svg" xmlns:ev="http://www.w3.org/2001/xml-events" xmlns:xlink="http://www.w3.org/1999/xlink"><defs /><g><path d="M44 1 38 45Q80 45 103.0 59.5Q126 74 130 117Q132 132 132.5 166.0Q133 200 134.0 241.5Q135 283 135.0 322.0Q135 361 135 386V497Q135 528 121.5 543.0Q108 558 86.5 562.5Q65 567 42 567L36 616Q93 613 139 613Q163 613 187.5 613.5Q212 614 238 615Q249 596 269.5 559.5Q290 523 315.0 477.0Q340 431 364.0 382.0Q388 333 407.0 286.5Q426 240 435 204L445 126L646 614Q663 613 683.0 612.5Q703 612 727 612Q750 612 781.5 613.0Q813 614 845 616L852 567Q812 567 789.5 554.5Q767 542 764 495Q763 484 762.5 463.5Q762 443 762.0 420.0Q762 397 762.0 378.0Q762 359 762 351Q762 314 762.5 268.0Q763 222 764.5 181.0Q766 140 768 117Q771 84 779.0 67.5Q787 51 804.0 46.0Q821 41 849 41L856 1H604L597 45Q616 45 634.0 48.5Q652 52 665.0 65.0Q678 78 681 107Q683 126 684.5 180.5Q686 235 686 308Q686 377 684.5 440.5Q683 504 681 552L655 466Q612 372 566.5 265.0Q521 158 475 41L474 42V41L421 25Q417 42 403.0 78.0Q389 114 369.0 160.5Q349 207 325.0 257.0Q301 307 276.5 354.0Q252 401 230 438L203 532Q202 495 201.0 451.0Q200 407 200 358Q200 299 201.0 246.0Q202 193 204.0 154.0Q206 115 208 97Q213 65 229.0 53.5Q245 42 280 42L289 1Z" transform="translate(0.0, 72) scale(0.072, -0.072)" /><path d="M162 -10Q105 -10 68.0 17.0Q31 44 31 100Q31 156 72.5 194.5Q114 233 204 255Q237 263 266.5 267.0Q296 271 314 273Q313 325 307 352Q298 395 274.0 411.0Q250 427 224 427Q200 427 182.0 417.5Q164 408 151 395Q144 376 139.0 355.5Q134 335 132 309L64 302Q62 322 61.0 342.0Q60 362 60 378Q60 393 60.5 402.0Q61 411 62 415Q97 434 147.5 452.0Q198 470 265 470Q338 470 368.0 439.5Q398 409 398 331Q398 313 397.0 295.5Q396 278 394 256Q392 223 391.0 202.0Q390 181 390 158Q390 129 393.5 102.0Q397 75 409.0 58.5Q421 42 448 42H458L467 12Q458 8 437.0 0.0Q416 -8 390 -8Q353 -8 337.0 11.0Q321 30 316 63Q305 48 285.0 31.0Q265 14 234.5 2.0Q204 -10 162 -10ZM129 119Q129 86 148.0 67.5Q167 49 202 49Q242 49 271.0 70.0Q300 91 309 113Q313 158 314 217Q303 219 288.5 221.5Q274 224 257 224Q196 224 162.5 193.5Q129 163 129 119Z" transform="translate(63.93599999999999, 72) scale(0.072, -0.072)" /><path d="M55 0 49 48Q54 47 59.0 47.0Q64 47 69 47Q95 47 114.5 57.5Q134 68 136 94Q141 145 141.5 199.0Q142 253 142 291Q142 333 138.0 359.0Q134 385 113.5 397.5Q93 410 45 411L40 457Q63 457 91.5 458.5Q120 460 148.5 462.0Q177 464 198.5 465.5Q220 467 228 468Q228 463 225.5 444.5Q223 426 220.0 406.0Q217 386 214 376Q235 400 266.0 421.5Q297 443 333.0 456.5Q369 470 406 470Q450 470 480.0 447.5Q510 425 520 370Q522 362 523.5 340.0Q525 318 524 287L522 207Q521 161 519.5 140.0Q518 119 518 108Q518 77 529.0 62.0Q540 47 556.0 43.0Q572 39 587 39L594 0H355L347 42H367Q399 42 415.0 54.5Q431 67 436 104Q438 118 439.5 140.5Q441 163 441.5 187.0Q442 211 442 229Q442 257 440.5 283.0Q439 309 437 323Q431 362 407.5 379.5Q384 397 349 397Q304 397 273.0 377.0Q242 357 229 342Q227 285 225.5 222.5Q224 160 224 105Q224 74 234.5 59.5Q245 45 260.0 41.0Q275 37 290 37L297 0Z" transform="translate(98.42399999999999, 72) scale(0.072, -0.072)" /><path d="M162 -10Q105 -10 68.0 17.0Q31 44 31 100Q31 156 72.5 194.5Q114 233 204 255Q237 263 266.5 267.0Q296 271 314 273Q313 325 307 352Q298 395 274.0 411.0Q250 427 224 427Q200 427 182.0 417.5Q164 408 151 395Q144 376 139.0 355.5Q134 335 132 309L64 302Q62 322 61.0 342.0Q60 362 60 378Q60 393 60.5 402.0Q61 411 62 415Q97 434 147.5 452.0Q198 470 265 470Q338 470 368.0 439.5Q398 409 398 331Q398 313 397.0 295.5Q396 278 394 256Q392 223 391.0 202.0Q390 181 390 158Q390 129 393.5 102.0Q397 75 409.0 58.5Q421 42 448 42H458L467 12Q458 8 437.0 0.0Q416 -8 390 -8Q353 -8 337.0 11.0Q321 30 316 63Q305 48 285.0 31.0Q265 14 234.5 2.0Q204 -10 162 -10ZM129 119Q129 86 148.0 67.5Q167 49 202 49Q242 49 271.0 70.0Q300 91 309 113Q313 158 314 217Q303 219 288.5 221.5Q274 224 257 224Q196 224 162.5 193.5Q129 163 129 119Z" transform="translate(143.208, 72) scale(0.072, -0.072)" /><path d="M45 0 39 48Q44 47 49.0 47.0Q54 47 59 47Q85 47 104.5 57.5Q124 68 126 94Q131 145 131.5 199.0Q132 253 132 291Q132 333 127.5 359.0Q123 385 103.0 397.5Q83 410 35 411L30 457Q53 457 81.5 458.5Q110 460 138.5 462.0Q167 464 188.5 465.5Q210 467 218 468Q218 463 215.5 446.0Q213 429 210.0 410.0Q207 391 204 381Q223 403 252.5 423.5Q282 444 317.0 457.5Q352 471 390 471Q430 471 459.0 453.0Q488 435 499 395Q530 425 575.5 448.0Q621 471 672 471Q717 471 748.0 447.5Q779 424 784 370Q786 351 786.5 328.5Q787 306 787 297L785 187L782 91Q781 61 800.0 50.0Q819 39 845 39L852 0H629L621 41H631Q657 41 673.0 53.0Q689 65 695 105Q698 126 699.5 163.5Q701 201 701 229Q701 290 696 323Q690 363 669.0 381.0Q648 399 612 399Q571 399 543.0 382.5Q515 366 504 354Q505 338 505.5 321.5Q506 305 506 297L504 187L501 91Q500 61 519.0 50.0Q538 39 564 39L571 0H348L340 45H350Q376 45 392.5 55.5Q409 66 414 105Q417 126 418.5 163.5Q420 201 420 229Q420 290 415 323Q409 363 388.0 381.0Q367 399 331 399Q301 399 278.0 389.5Q255 380 240.0 368.5Q225 357 219 350Q217 291 215.5 226.5Q214 162 214 105Q214 74 224.5 59.5Q235 45 250.0 41.0Q265 37 280 37L287 0Z" transform="translate(177.696, 72) scale(0.072, -0.072)" /><path d="M252 -15Q194 -15 145.0 9.0Q96 33 67.0 82.0Q38 131 38 207Q38 288 70.0 346.5Q102 405 153.5 436.0Q205 467 263 467Q312 467 351.5 444.0Q391 421 414.5 376.0Q438 331 438 265Q438 255 438.0 245.5Q438 236 436 225L131 223Q132 176 145.0 134.5Q158 93 190.5 67.0Q223 41 281 41Q320 41 346.5 51.0Q373 61 387.5 71.5Q402 82 404 85L420 59Q412 49 392.0 31.5Q372 14 337.5 -0.5Q303 -15 252 -15ZM247 422Q202 422 170.5 379.5Q139 337 132 262L292 278H341Q341 315 330.5 348.0Q320 381 299.5 401.5Q279 422 247 422Z" transform="translate(240.48, 72) scale(0.072, -0.072)" /></g></svg>
